src/assets/Icons/404.svg

<svg width="514" height="164" viewBox="0 0 514 164" fill="none" xmlns="http://www.w3.org/2000/svg">
<circle cx="101" cy="22" r="20" stroke="#373737" stroke-width="2"/>
<circle cx="101" cy="142" r="20" stroke="#373737" stroke-width="2"/>
<circle cx="21" cy="102" r="20" stroke="#373737" stroke-width="2"/>
<circle cx="141" cy="102" r="20" stroke="#373737" stroke-width="2"/>
<circle cx="193" cy="82.0001" r="20" stroke="#373737" stroke-width="2"/>
<circle cx="313" cy="82.0001" r="20" stroke="#373737" stroke-width="2"/>
<circle cx="253" cy="22" r="20" stroke="#373737" stroke-width="2"/>
<circle cx="253" cy="142" r="20" stroke="#373737" stroke-width="2"/>
<path d="M1 102C1 90.9544 9.9543 82.0001 21 82.0001H141C152.046 82.0001 161 90.9544 161 102C161 113.046 152.046 122 141 122H21C9.9543 122 1 113.046 1 102Z" stroke="#373737" stroke-width="2"/>
<path d="M101 162C89.9543 162 81 153.046 81 142L81 22.0001C81 10.9544 89.9543 2.00006 101 2.00006C112.046 2.00006 121 10.9544 121 22.0001L121 142C121 153.046 112.046 162 101 162Z" stroke="#373737" stroke-width="2"/>
<path d="M7.14214 115.995C-0.668351 108.184 -0.668351 95.5212 7.14214 87.7107L86.7107 8.14216C94.5212 0.331675 107.184 0.331668 114.995 8.14215C122.805 15.9526 122.805 28.6159 114.995 36.4264L35.4264 115.995C27.6159 123.805 14.9526 123.805 7.14214 115.995Z" stroke="#373737" stroke-width="2"/>
<circle cx="453" cy="22" r="20" stroke="#373737" stroke-width="2"/>
<circle cx="453" cy="142" r="20" stroke="#373737" stroke-width="2"/>
<circle cx="373" cy="102" r="20" stroke="#373737" stroke-width="2"/>
<circle cx="493" cy="102" r="20" stroke="#373737" stroke-width="2"/>
<path d="M353 102C353 90.9544 361.954 82.0001 373 82.0001H493C504.046 82.0001 513 90.9544 513 102C513 113.046 504.046 122 493 122H373C361.954 122 353 113.046 353 102Z" stroke="#373737" stroke-width="2"/>
<path d="M453 162C441.954 162 433 153.046 433 142L433 22.0001C433 10.9544 441.954 2.00006 453 2.00006C464.046 2.00006 473 10.9544 473 22.0001L473 142C473 153.046 464.046 162 453 162Z" stroke="#373737" stroke-width="2"/>
<path d="M359.142 115.995C351.332 108.184 351.332 95.5212 359.142 87.7107L438.711 8.14216C446.521 0.331675 459.184 0.331668 466.995 8.14215C474.805 15.9526 474.805 28.6159 466.995 36.4264L387.426 115.995C379.616 123.805 366.953 123.805 359.142 115.995Z" stroke="#373737" stroke-width="2"/>
<circle cx="253" cy="82" r="80" stroke="#373737" stroke-width="2"/>
<circle cx="253" cy="82" r="40" stroke="#373737" stroke-width="2"/>
<line x1="8.74228e-08" y1="1" x2="513" y2="1.00004" stroke="#373737" stroke-width="2"/>
<line x1="-8.74228e-08" y1="163" x2="513" y2="163" stroke="#373737" stroke-width="2"/>
</svg>

<svg width="514" height="164" fill="none" xmlns="http://www.w3.org/2000/svg"><circle cx="101" cy="22" r="20" stroke="#373737" stroke-width="2"/><circle cx="101" cy="142" r="20" stroke="#373737" stroke-width="2"/><circle cx="21" cy="102" r="20" stroke="#373737" stroke-width="2"/><circle cx="141" cy="102" r="20" stroke="#373737" stroke-width="2"/><circle cx="193" cy="82" r="20" stroke="#373737" stroke-width="2"/><circle cx="313" cy="82" r="20" stroke="#373737" stroke-width="2"/><circle cx="253" cy="22" r="20" stroke="#373737" stroke-width="2"/><circle cx="253" cy="142" r="20" stroke="#373737" stroke-width="2"/><path d="M1 102c0-11.046 8.954-20 20-20h120c11.046 0 20 8.954 20 20s-8.954 20-20 20H21c-11.046 0-20-8.954-20-20Z" stroke="#373737" stroke-width="2"/><path d="M101 162c-11.046 0-20-8.954-20-20V22c0-11.046 8.954-20 20-20s20 8.954 20 20v120c0 11.046-8.954 20-20 20Z" stroke="#373737" stroke-width="2"/><path d="M7.142 115.995c-7.81-7.811-7.81-20.474 0-28.284L86.711 8.142c7.81-7.81 20.473-7.81 28.284 0 7.81 7.81 7.81 20.474 0 28.284l-79.569 79.569c-7.81 7.81-20.473 7.81-28.284 0Z" stroke="#373737" stroke-width="2"/><circle cx="453" cy="22" r="20" stroke="#373737" stroke-width="2"/><circle cx="453" cy="142" r="20" stroke="#373737" stroke-width="2"/><circle cx="373" cy="102" r="20" stroke="#373737" stroke-width="2"/><circle cx="493" cy="102" r="20" stroke="#373737" stroke-width="2"/><path d="M353 102c0-11.046 8.954-20 20-20h120c11.046 0 20 8.954 20 20s-8.954 20-20 20H373c-11.046 0-20-8.954-20-20Z" stroke="#373737" stroke-width="2"/><path d="M453 162c-11.046 0-20-8.954-20-20V22c0-11.046 8.954-20 20-20s20 8.954 20 20v120c0 11.046-8.954 20-20 20Z" stroke="#373737" stroke-width="2"/><path d="M359.142 115.995c-7.81-7.811-7.81-20.474 0-28.284l79.569-79.569c7.81-7.81 20.473-7.81 28.284 0 7.81 7.81 7.81 20.474 0 28.284l-79.569 79.569c-7.81 7.81-20.473 7.81-28.284 0Z" stroke="#373737" stroke-width="2"/><circle cx="253" cy="82" r="80" stroke="#373737" stroke-width="2"/><circle cx="253" cy="82" r="40" stroke="#373737" stroke-width="2"/><path stroke="#373737" stroke-width="2" d="M0 1h513M0 163h513"/></svg>
